X:2
T:Oiche Nollag
R:single jig
Z:in Ceol Rince na hEireann
Z:John Walsh Dec 99
S:John Walsh <walsh:math.ubc.ca> irtrad-l 2001-12-7
M:6/8
%Q:3/8=195
K:D
g|f2 A d2 f|e2 d B2 g|f2 A d2 f|{a}g3 a2 g|
f2 A d2f|e2 d B2 c|d2 A B2 G|E2 F D2:|
g|a2 b a2 f| d3 d2 f|g2fe2d|B3 A2 g|
a2ba2f|d2fg2f|e2dc2e|a3 a2:|
